Adwaita++/actions/22/institution-edit.svg

<svg height="22" width="22" xmlns="http://www.w3.org/2000/svg">
  <g fill="#444">
    <path d="m11.007812 3c-.166308.00989-.331632.1128756-.599609.2734375l-2.908203 1.7421875-2.8984375 1.7363281c-.638198.358215-.5518475.1965221-.6015625.8828125v1.2578125c0 .059578.0380375.1074219.0859375.1074219h.9140625v.4277344 7.1445316.427734h-.2324219c-.424987 0-.7675781.378053-.7675781.847656v1.152344h9v-.75l3.617188-3.619141.382812-.382812v-4.8203126-.4277344h.914062c.0479 0 .085938-.047844.085938-.1074219v-1.2304687c-.0014-.7238546-.01687-.5594669-.625-.9238282l-2.875-1.7226562-2.892578-1.7324219c-.267663-.2096236-.4333-.2930885-.59961-.2832031zm-4.007812 7h3v6h-3zm5 0h3v6h-3z"/>
    <path d="m18.805711 14c-.09101 0-.182726.03479-.253395.105469l-.697201.703125 1.335814 1.335937.703061-.697265c.141347-.141352.141347-.364012 0-.505372l-.836348-.836425c-.07067-.07068-.160917-.105469-.251931-.105469zm-1.480821 1.338867-3.32489 3.325196v1.335937h1.335814l3.324891-3.325195z"/>
  </g>
</svg>

<svg xmlns="http://www.w3.org/2000/svg" width="22" height="22" version="1.1">
 <defs>
  <style id="current-color-scheme" type="text/css">
   .ColorScheme-Text { color:#444444; } .ColorScheme-Highlight { color:#4285f4; }
  </style>
 </defs>
 <path style="fill:currentColor" class="ColorScheme-Text" d="M 11.007812,3 C 10.841504,3.00989 10.67618,3.1128756 10.408203,3.2734375 L 7.5,5.015625 4.6015625,6.7519531 C 3.9633645,7.1101681 4.049715,6.9484752 4,7.6347656 V 8.8925781 C 4,8.9521561 4.0380375,9 4.0859375,9 H 5 V 9.4277344 16.572266 17 H 4.7675781 C 4.3425911,17 4,17.378053 4,17.847656 V 19 h 9 V 18.25 L 16.617188,14.630859 17,14.248047 V 9.4277344 9 h 0.914062 C 17.961962,9 18,8.952156 18,8.8925781 V 7.6621094 C 17.9986,6.9382548 17.98313,7.1026425 17.375,6.7382812 L 14.5,5.015625 11.607422,3.2832031 C 11.339759,3.0735795 11.174122,2.9901146 11.007812,3 Z M 7,10 h 3 v 6 H 7 Z m 5,0 h 3 v 6 h -3 z"/>
 <path style="fill:currentColor" class="ColorScheme-Text" d="m 18.805711,14 c -0.09101,0 -0.182726,0.03479 -0.253395,0.105469 l -0.697201,0.703125 1.335814,1.335937 0.703061,-0.697265 c 0.141347,-0.141352 0.141347,-0.364012 0,-0.505372 L 19.057642,14.105469 C 18.986972,14.034789 18.896725,14 18.805711,14 Z M 17.32489,15.338867 14,18.664063 V 20 h 1.335814 l 3.324891,-3.325195 z"/>
</svg>
